X:419
T:Vedder Michel
M:2/4
L:1/8
K:G
G/A/ | BG GA/B/ | cA Ad/c/ | BG GF/G/ | A/G/ F/E/ DG/A/ | 
BG GA/B/ | cA Ad/c/ | BG AF | G2 z || 
B/c/ | dB dg | ec cc/d/ | ec ea | fd dd/c/ | 
BG GA/B/ | cA Ad/c/ | BG AF | G2 z || 

